X: 11324
T: The COTTAGE ON THE MOOR
Q: "Moderate."
%R: air, march
B: W. Hamilton "Universal Tune-Book" Vol. 1 Glasgow 1844 p.132 #4
S: http://imslp.org/wiki/Hamilton's_Universal_Tune-Book_(Various)
Z: 2016 John Chambers <jc:trillian.mit.edu>
M: 2/4
L: 1/16
K: Bb
%%slurgraces yes
%%graceslurs yes
% - - - - - - - - - - - - - - - - - - - - - - - - -
F2 |\
B4 c2f2 | d4 B2e2 | c4 (BA)(GF) | B4 z2d2 |\
(c2f2)f2A2 | (c2B2)G2B2 | A4 (GFGA) | F4 z2(FG) |\
(A2B2c2)d2 | (f2e2)c2e2 | d4 G2c2 | (B4 {cB}A2)f2 |
(f2b2)f2d2 | (c2g2)e2c2 | {B}A4 (BA)(GF) | B4 z2f2 |\
(df3)df3 | d2B2 z2d2 | eg3dg3 | e2c2 z2f2 |\
(f2d2)b2f2 | (g3a) b2(ge) | d4 (cB)(cd) | B4 z2 |]
% - - - - - - - - - - - - - - - - - - - - - - - - -

% (Continued from previous page)

%%sep 1 1 500
%%sep 1 1 500

